X: 126
T: We Three Kings Of Orient Are
C: John Henry Hopkins, 1857
L: 1/4
M: 3/8
%%maxsysstaffsep 110pt
%%staffsep  0pt
Q: 1/4=75
P:BABABABABAB
V:S
%%MIDI program 1 69	% Oboe
V:A
%%MIDI program 2 71	% Bassoon
V:T clef=treble_8
%%MIDI program 3 68	% Baritone Sax
%%score (S A) T
K: G
P:A
[V: S]
B A/ | G E/ | F/ G/ F/ | E z/ | B A/ | G E/ | F/ G/ F/ | E z/ |
G G/ | A A/ | B B/ | (d/c/) B/ | A/ B/ A/ | G F/ | E3/|
%
w:1~We three kings of O-ri-ent are Bear-ing gifts, we tra-verse a-far.
+:Field and foun-tain, moor and moun_tain, Fol-low-ing yon-der star.
%
w:2~Born a King on Beth-le-hem's plain Gold I bring to crown Him a-gain
+:King for e-ver, ceas-ing ne_ver O-ver us all to reign
%
w:3~Frank-in-cense to of-fer have I In-cense owns a De-i-ty nigh
+:Prayer and prais-ing, all men rais_ing Wor-ship Him, God most high
%
w:4~Myrrh is mine Its bit-ter per-fume breathes A life of ga-ther-ing gloom
+:Sorrow-ing, sigh-ing, bleed-ing, dy_ing Sealed in the stone cold tomb
%
w:5~Glor-ious now be-hold Him a-rise King and God and Sac_ri-fice!
+:Al-le-lu-ia, al-le-lu_ia Hea-ven to earth rep-lies
%
"^Chorus"
(F3/2|A3/2) | G G/ | G D/ | G E/ | Gz/ | G G/ | G D/ | G E/ | Gz/ |
w:Oh,_ star of won- der, star of night, Star with ro- yal beau- ty bright,
%
[V: A]
G F/|E E/ | ^D/ E/ D/|E z/ | G F/|E E/ | ^D/ E/ D/|E z/|
E E/|F F/ | G G/|G/F/ G/  | E/ E/ E/|E ^D/ | E3/ |
D3/2-|D3/2 | D D/ | D B,/ | B, E/| D z/| D D/ | D B,/| B, E/ | D z/|
%
[V: T]
B, B,/ | B, G,/ | A,/ B,/ A,/ | G, z/ | B, B,/ | B, G,/ | A,/ B,/ A,/ | G, z/ |
B, B,/ | D D/ | D D/ | B,/D/ D/ | C/ C/ C/ | B, A,/ | G,3/ |
(A,3/2|C3/2)| B, B,/| B, G,/| G, C/ | B, z/ | B, B,/ | B, G,/ | G, C/ | B, z/|
P:B
[V: S] G G/ | A B/ | c B/ | A B/ | G G/ | G D/ | G E/ | G3/ x/|]
w:West- ward lead- ing, still pro- ceed ing, Guide us to thy per- fect Light.
[V: A] E E/ | F F/| G G/ | G F/| G D/ |B, D/ | E C/ | D3/ x/|]
[V: T] B, B,/ | D D/| E D/ | D C/| B, B,/ | G, G,/| G, C/ | B,3/ x/|]

%%newpage
%%center  Chinese New Year

